client/src/img/add-button.svg

<svg width="48" height="48" viewBox="0 0 48 48" fill="none" xmlns="http://www.w3.org/2000/svg">
    <path d="M39.4285 0H8.57139C3.83986 0.005625 0.005625 3.83986 0 8.57139V39.4285C0.005625 44.16 3.83986 47.9943 8.57139 47.9999H39.4285C44.16 47.9943 47.9943 44.16 47.9999 39.4285V8.57139C47.9943 3.83986 44.16 0.005625 39.4285 0ZM32.5714 25.7143H25.7143V32.5714C25.7143 33.5182 24.9468 34.2858 24 34.2858C23.0531 34.2858 22.2856 33.5182 22.2856 32.5714V25.7143H15.4286C14.4818 25.7143 13.7142 24.9468 13.7142 24C13.7142 23.0531 14.4818 22.2856 15.4286 22.2856H22.2857V15.4286C22.2857 14.4818 23.0532 13.7142 24.0001 13.7142C24.9469 13.7142 25.7143 14.4818 25.7143 15.4286V22.2857H32.5714C33.5182 22.2857 34.2858 23.0532 34.2858 24.0001C34.2858 24.9469 33.5181 25.7143 32.5714 25.7143Z" fill="#FF2D92"/>
    </svg>

<svg width="48" height="48" fill="none" xmlns="http://www.w3.org/2000/svg"><path d="M39.428 0H8.572A8.582 8.582 0 000 8.571v30.857A8.582 8.582 0 008.571 48h30.857A8.582 8.582 0 0048 39.428V8.572A8.582 8.582 0 0039.428 0zm-6.857 25.714h-6.857v6.857a1.714 1.714 0 11-3.428 0v-6.857h-6.857a1.714 1.714 0 110-3.428h6.857v-6.857a1.714 1.714 0 113.428 0v6.857h6.857a1.714 1.714 0 110 3.428z" fill="#FF2D92"/></svg>
